Gnome-object-flip-horizontal-purple.svg

<?xml version="1.0" encoding="UTF-8" standalone="no"?>
<!-- Created with Inkscape (http://www.inkscape.org/) -->
<svg
   xmlns:dc="http://purl.org/dc/elements/1.1/"
   xmlns:cc="http://creativecommons.org/ns#"
   xmlns:rdf="http://www.w3.org/1999/02/22-rdf-syntax-ns#"
   xmlns:svg="http://www.w3.org/2000/svg"
   xmlns="http://www.w3.org/2000/svg"
   xmlns:xlink="http://www.w3.org/1999/xlink"
   xmlns:sodipodi="http://sodipodi.sourceforge.net/DTD/sodipodi-0.dtd"
   xmlns:inkscape="http://www.inkscape.org/namespaces/inkscape"
   width="48"
   height="48"
   id="svg2"
   sodipodi:version="0.32"
   inkscape:version="0.46"
   version="1.0"
   sodipodi:docbase="/home/dobey/Projects/gnome-icon-theme/scalable/actions"
   sodipodi:docname="Gnome-object-flip-horizontal.svg"
   inkscape:export-filename="/home/lapo/Desktop/rotate.png"
   inkscape:export-xdpi="90"
   inkscape:export-ydpi="90"
   inkscape:output_extension="org.inkscape.output.svg.inkscape">
  <defs
     id="defs4">
    <inkscape:perspective
       sodipodi:type="inkscape:persp3d"
       inkscape:vp_x="0 : 24 : 1"
       inkscape:vp_y="0 : 1000 : 0"
       inkscape:vp_z="48 : 24 : 1"
       inkscape:persp3d-origin="24 : 16 : 1"
       id="perspective22" />
    <linearGradient
       id="linearGradient6918">
      <stop
         style="stop-color:#fcaf3e;stop-opacity:1"
         offset="0"
         id="stop6920" />
      <stop
         style="stop-color:#ffffff;stop-opacity:1;"
         offset="1"
         id="stop6922" />
    </linearGradient>
    <radialGradient
       inkscape:collect="always"
       xlink:href="#linearGradient3209"
       id="radialGradient3359"
       gradientUnits="userSpaceOnUse"
       gradientTransform="matrix(1,0,0,0.537849,0,7.842131)"
       cx="12.15625"
       cy="16.96875"
       fx="12.15625"
       fy="16.96875"
       r="7.84375" />
    <linearGradient
       inkscape:collect="always"
       id="linearGradient3263">
      <stop
         style="stop-color:white;stop-opacity:1;"
         offset="0"
         id="stop3265" />
      <stop
         style="stop-color:white;stop-opacity:0;"
         offset="1"
         id="stop3267" />
    </linearGradient>
    <linearGradient
       inkscape:collect="always"
       id="linearGradient3209">
      <stop
         style="stop-color:black;stop-opacity:1;"
         offset="0"
         id="stop3211" />
      <stop
         style="stop-color:black;stop-opacity:0;"
         offset="1"
         id="stop3213" />
    </linearGradient>
    <linearGradient
       inkscape:collect="always"
       xlink:href="#linearGradient3263"
       id="linearGradient3854"
       gradientUnits="userSpaceOnUse"
       gradientTransform="matrix(0,1,-1,0,44.01386,-2.96967)"
       x1="20.875"
       y1="24.5625"
       x2="52.219353"
       y2="13.597429" />
    <inkscape:perspective
       id="perspective2402"
       inkscape:persp3d-origin="372.04724 : 350.78739 : 1"
       inkscape:vp_z="744.09448 : 526.18109 : 1"
       inkscape:vp_y="0 : 1000 : 0"
       inkscape:vp_x="0 : 526.18109 : 1"
       sodipodi:type="inkscape:persp3d" />
  </defs>
  <sodipodi:namedview
     id="base"
     pagecolor="#ffffff"
     bordercolor="#afafaf"
     borderopacity="1"
     inkscape:pageopacity="0.0"
     inkscape:pageshadow="2"
     inkscape:zoom="4"
     inkscape:cx="73.796171"
     inkscape:cy="-13.715077"
     inkscape:document-units="px"
     inkscape:current-layer="layer1"
     width="48px"
     height="48px"
     inkscape:showpageshadow="false"
     borderlayer="true"
     inkscape:window-width="1280"
     inkscape:window-height="978"
     inkscape:window-x="-4"
     inkscape:window-y="-4"
     showgrid="false"
     showguides="true"
     showborder="false"
     inkscape:guide-bbox="true"
     inkscape:grid-points="true">
    <inkscape:grid
       id="GridFromPre046Settings"
       type="xygrid"
       originx="0px"
       originy="0px"
       spacingx="0.5px"
       spacingy="0.5px"
       color="#0000ff"
       empcolor="#0000ff"
       opacity="0.2"
       empopacity="0.4"
       empspacing="2" />
  </sodipodi:namedview>
  <metadata
     id="metadata7">
    <rdf:RDF>
      <cc:Work
         rdf:about="">
        <dc:format>image/svg+xml</dc:format>
        <dc:type
           rdf:resource="http://purl.org/dc/dcmitype/StillImage" />
        <dc:creator>
          <cc:Agent>
            <dc:title>Lapo Calamandrei</dc:title>
          </cc:Agent>
        </dc:creator>
        <cc:license
           rdf:resource="http://creativecommons.org/licenses/GPL/2.0/" />
        <dc:title>Flip Horizontally</dc:title>
        <dc:date>2006-10-02</dc:date>
        <dc:subject>
          <rdf:Bag>
            <rdf:li>flip</rdf:li>
            <rdf:li>mirror</rdf:li>
            <rdf:li>arrows</rdf:li>
            <rdf:li>horizontally</rdf:li>
          </rdf:Bag>
        </dc:subject>
      </cc:Work>
      <cc:License
         rdf:about="http://creativecommons.org/licenses/GPL/2.0/">
        <cc:permits
           rdf:resource="http://web.resource.org/cc/Reproduction" />
        <cc:permits
           rdf:resource="http://web.resource.org/cc/Distribution" />
        <cc:requires
           rdf:resource="http://web.resource.org/cc/Notice" />
        <cc:permits
           rdf:resource="http://web.resource.org/cc/DerivativeWorks" />
        <cc:requires
           rdf:resource="http://web.resource.org/cc/ShareAlike" />
        <cc:requires
           rdf:resource="http://web.resource.org/cc/SourceCode" />
      </cc:License>
    </rdf:RDF>
  </metadata>
  <g
     inkscape:label="Livello 1"
     inkscape:groupmode="layer"
     id="layer1"
     style="display:inline">
    <path
       inkscape:export-ydpi="90"
       inkscape:export-xdpi="90"
       inkscape:export-filename="/home/lapo/Desktop/rotate.png"
       transform="matrix(2.8047804,0,0,2.133333,-10.095615,2.8)"
       d="M 20 16.96875 A 7.84375 4.21875 0 1 1  4.3125,16.96875 A 7.84375 4.21875 0 1 1  20 16.96875 z"
       sodipodi:ry="4.21875"
       sodipodi:rx="7.84375"
       sodipodi:cy="16.96875"
       sodipodi:cx="12.15625"
       id="path3323"
       style="opacity:0.15;color:#000000;fill:url(#radialGradient3359);fill-opacity:1;fill-rule:nonzero;stroke:none;stroke-width:1;stroke-linecap:round;stroke-linejoin:miter;marker:none;marker-start:none;marker-mid:none;marker-end:none;stroke-miterlimit:4;stroke-dasharray:none;stroke-dashoffset:1.4;stroke-opacity:1;visibility:visible;display:inline;overflow:visible"
       sodipodi:type="arc" />
    <path
       sodipodi:type="inkscape:offset"
       inkscape:radius="1.03125"
       inkscape:original="M 29.5 10.0625 L 29.5 16.53125 C 29.494978 17.081441 29.050191 17.526228 28.5 17.53125 L 18.5 17.53125 C 17.949809 17.526228 17.505022 17.081441 17.5 16.53125 L 17.5 10.125 L 3.5 23.03125 L 17.5 36 L 17.5 29.53125 C 17.505022 28.981059 17.949809 28.536272 18.5 28.53125 L 28.5 28.53125 C 29.050191 28.536272 29.494978 28.981059 29.5 29.53125 L 29.5 35.9375 L 43.5 23.03125 L 29.5 10.0625 z "
       style="color:#000000;fill:#8888aa;fill-opacity:1;fill-rule:nonzero;stroke:none;stroke-width:0.99999994000000003;stroke-linecap:round;stroke-linejoin:miter;marker:none;marker-start:none;marker-mid:none;marker-end:none;stroke-miterlimit:4;stroke-dashoffset:1.39999999999999990;stroke-opacity:1;visibility:visible;display:inline;overflow:visible"
       id="path5945"
       d="M 29.34375,9.03125 C 28.83595,9.1090983 28.462869,9.5488006 28.46875,10.0625 L 28.46875,16.5 L 18.53125,16.5 L 18.53125,10.125 C 18.523927,9.7217437 18.282212,9.3597578 17.912551,9.1984511 C 17.54289,9.0371444 17.11312,9.1061188 16.8125,9.375 L 2.8125,22.28125 C 2.6060825,22.476094 2.4890941,22.747398 2.4890941,23.03125 C 2.4890941,23.315102 2.6060825,23.586406 2.8125,23.78125 L 16.8125,36.75 C 17.11312,37.018881 17.54289,37.087856 17.912551,36.926549 C 18.282212,36.765242 18.523927,36.403256 18.53125,36 L 18.53125,29.5625 L 28.46875,29.5625 L 28.46875,35.9375 C 28.476073,36.340756 28.717788,36.702742 29.087449,36.864049 C 29.45711,37.025356 29.88688,36.956381 30.1875,36.6875 L 44.1875,23.78125 C 44.393917,23.586406 44.510906,23.315102 44.510906,23.03125 C 44.510906,22.747398 44.393917,22.476094 44.1875,22.28125 L 30.1875,9.3125 C 29.963199,9.0960678 29.65305,8.9926846 29.34375,9.03125 z " />
    <path
       style="color:#000000;fill:none;fill-opacity:1;fill-rule:nonzero;stroke:url(#linearGradient3854);stroke-width:0.99999994;stroke-linecap:round;stroke-linejoin:round;marker:none;marker-start:none;marker-mid:none;marker-end:none;stroke-miterlimit:4;stroke-dashoffset:1.4;stroke-opacity:1;visibility:visible;display:inline;overflow:visible"
       d="M 29.5,10.03125 L 29.5,17.53125 L 17.5,17.53125 L 17.5,10.125 L 3.46875,23.0625 L 17.5,36.03125 L 17.5,28.53125 L 29.5,28.53125 L 29.5,35.9375 L 43.53125,23 L 29.5,10.03125 z "
       id="path3392"
       sodipodi:nodetypes="ccccccccccc" />
  </g>
</svg>

<svg viewBox="0 0 48 48" xmlns="http://www.w3.org/2000/svg">
<defs>
<linearGradient gradientTransform="matrix(0,1,-1,0,44.01386,-2.96967)" gradientUnits="userSpaceOnUse" id="linearGradient3854" x1="20.875" x2="52.21935" y1="24.5625" y2="13.59743">
<stop offset="0" stop-color="#fff"/>
<stop offset="1" stop-color="#fff" stop-opacity="0"/>
</linearGradient>
<radialGradient cx="12.15625" cy="16.96875" gradientTransform="matrix(1,0,0,.537849,0,7.842131)" gradientUnits="userSpaceOnUse" id="radialGradient3359" r="7.84375">
<stop offset="0"/>
<stop offset="1" stop-opacity="0"/>
</radialGradient>
</defs>
<path d="m20,16.96875a7.84375,4.21875 0 1,1 -15.6875,0 7.84375,4.21875 0 1,1 15.6875,0z" fill="url(#radialGradient3359)" opacity=".15" transform="matrix(2.80478,0,0,2.133333,-10.095615,2.8)"/>
<path d="m29.34375,9.03125c-.5078.07785-.88088.51755-.875,1.03125v6.4375h-9.9375v-6.375c-.00732-.40326-.24904-.76524-.6187-.92655s-.79943-.09233-1.10005.17655l-14,12.90625c-.20642.19484-.32341.46615-.32341.75s.11699.55516.32341.75l14,12.96875c.30062.26888.73039.33786 1.10005.17655s.61138-.52329.6187-.92655v-6.4375h9.9375v6.375c.00732.40326.24904.76524.6187.92655s.79943.09233 1.10005-.17655l14-12.90625c.20642-.19484.32341-.46615.32341-.75s-.11699-.55516-.32341-.75l-14-12.96875c-.2243-.21643-.53445-.31982-.84375-.28125z" fill="#88a"/>
<path d="m29.5,10.03125v7.5h-12v-7.40625l-14.03125,12.9375 14.03125,12.96875v-7.5h12v7.40625l14.03125-12.9375-14.03125-12.96875z" fill="none" stroke="url(#linearGradient3854)" stroke-dashoffset="1.4" stroke-linecap="round" stroke-linejoin="round"/>
</svg>
